X: 1341
T: Meclis Ârâ Muğpeçenin
C: Tanburî Mustafa Çavuş
O: Turkey
F: http://compmusic.upf.edu/node/140
N: sehnaz--sarki--aksak--meclis_ara--tanburi_mustafa_cavus
N: makam= sehnaz
N: form= sarki
N: usul= aksak = 9/8
M: 9/8
L: 1/16
K: C _7/8B ^1/4f ^c ^g
Q: 1/4=144
%%MIDI tuningsystem comma53
a4 a2=b2 a2g2 f2e2 f2 | g4a2 g2f2 e2g4fe  | \
w:  *  Mec *  lis_ â râ   |  muğ pe *  çe *  nin    | 
d4 c2d2 e2^f2 =g4 g2 | 
w:  *  Â şı kı  *  *  çok   | 
=g2 f2e2 d2c2 B2A2 B2c2  | A2=c'4c'b baag a4 g2 | \
w:  per *  *  *  çe *  mi  |  nin  *  a *  man_ *  a *  man    | 
a4a2 =b2a2 g2f2 e2f2  | 
w:  *  Mec *  lis_ â râ   | 
g4 a2g2 f2e2 g4 fe | d4c2 d2e2 ^f2=g4g2  | \
w:  muğ pe *  çe *  nin    |  *  Â şı kı  *  *  çok   | 
=g2f2 e2d2 c2B2 A2B2 c2 | 
w:  per *  *  *  çe *  mi  | 
A4z2 egfe e^de4d2  | e2z2 e2g2 f2e2 e4 ^d2 | \
w:  nin  a *  man_ *  a *  man    |  *  Tah rîk_ e *  der   | 
e4a2 g2f2 e2g4fe  | 
w:  aş kı  *  el *  bet    | 
e2z2 a2=b2 a2g2 f2e2 f2 | g4a2 g2f2 e2g4fe  | \
w:  *  Hûb  sa dâ *  sın   |  i şi *  te *  nin    | 
d2z2 c2d2 e2^f2 =g6 | 
w:  *  Se vil mez  *  mi   | 
=g2 f2f2 e2e2 d2c4BA  | A2z2 A2B2 c2d2 e2f2 e2 | \
w:  sa *  rıl *  maz  *  mı    |  *  Hoş  ref tâ *  rın   | 
d2 f2e2 d2c4A2 B2c2  | 
w:  var *  *  *  dır  se  | 
A8 z4 z4 z2 | a4a2 =b2a2 g2f2 e2f2  | \
w:  nin    |  *  Mec *  lis_ â râ   | 
g4 a2g2 f2e2 g4 fe | d4c2 d2e2 ^f2=g4g2  | 
w:  muğ pe *  çe *  nin    |  *  Â şı kı  *  *  çok   | 
=g2f2 e2d2 c2B2 A2B2 c2 | A2 =c'4 c'bba aga4g2  | \
w:  per *  *  *  çe *  mi  |  nin  *  a *  man_ *  a *  man    | 
a4 a2=b2 a2g2 f2e2 f2 | 
w:  *  Mec *  lis_ â râ   | 
g4a2 g2f2 e2g4fe  | d4 c2d2 e2^f2 =g4 g2 | \
w:  muğ pe *  çe *  nin    |  *  Â şı kı  *  *  çok   | 
=g2 f2e2 d2c2 B2A2 B2c2  | 
w:  per *  *  *  çe *  mi  | 
A4 z2eg fee^d e4 d2 | e2 z2e2 g2f2 e2e4^d2  | \
w:  nin  a *  man_ *  a *  man    |  *  Tah rîk_ e *  der   | 
e4 a2g2 f2e2 g4 fe | 
w:  aş kı  *  el *  bet    | 
e2 z2a2 =b2a2 g2f2 e2f2  | g4 a2g2 f2e2 g4 fe | \
w:  *  Hûb  sa dâ *  sın   |  i şi *  te *  nin    | 
d2 z2c2 d2e2 ^f2=g6  | 
w:  *  Se vil mez  *  mi   | 
=g2f2 f2e2 e2d2 c4 BA | A2 z2A2 B2c2 d2e2 f2e2  | \
w:  sa *  rıl *  maz  *  mı    |  *  Hoş  ref tâ *  rın   | 
d2f2 e2d2 c4 A2B2 c2 | 
w:  var *  *  *  dır  se  | 
A8z4z4z2  | |


